; generated by PrusaSlicer 2.6.0+win64 on 2023-07-18 at 13:48:59 UTC


;
;
; 

; external perimeters extrusion width = 0.60mm
; perimeters extrusion width = 0.50mm
; infill extrusion width = 0.50mm
; solid infill extrusion width = 0.50mm
; top infill extrusion width = 0.45mm
; first layer extrusion width = 0.42mm

M73 P0 R24
M73 Q0 S24
M201 X1000 Y1000 Z200 E5000 ; sets maximum accelerations, mm/sec^2
M203 X200 Y200 Z12 E120 ; sets maximum feedrates, mm / sec
M204 S1250 T1250 ; sets acceleration (S) and retract acceleration (R), mm/sec^2
M205 X8.00 Y8.00 Z0.40 E4.50 ; sets the jerk limits, mm/sec
M205 S0 T0 ; sets the minimum extruding and travel feed rate, mm/sec
;TYPE:Custom
M862.3 P "MK3S" ; printer model check
M862.1 P0.4 ; nozzle diameter check
M115 U3.12.2 ; tell printer latest fw version
G90 ; use absolute coordinates
M83 ; extruder relative mode
M104 S215 ; set extruder temp
M140 S60 ; set bed temp
M190 S60 ; wait for bed temp
M109 S215 ; wait for extruder temp
G28 W ; home all without mesh bed level
G80 ; mesh bed leveling

G1 Z0.2 F720
G1 Y-3 F1000 ; go outside print area
G92 E0
G1 X60 E9 F1000 ; intro line
G1 X100 E12.5 F1000 ; intro line

G92 E0
M221 S95

; Don't change E values below. Excessive value can damage the printer.

M907 E538 ; set extruder motor current
G21 ; set units to millimeters
G90 ; use absolute coordinates
M83 ; use relative distances for extrusion
M900 K0.05 ; Filament gcode LA 1.5
M900 K30 ; Filament gcode LA 1.0
M107
;LAYER_CHANGE
;Z:0.2
;HEIGHT:0.2
;BEFORE_LAYER_CHANGE
G92 E0.0
;0.2


G1 E-.8 F2100
G1 Z.4 F720
;AFTER_LAYER_CHANGE
;0.2
G1 X113.015 Y83.693 F10800
G1 Z.2 F720
G1 E.8 F2100
M204 S800
;TYPE:Skirt/Brim
;WIDTH:0.42
G1 F1200
G1 X114.06 Y82.817 E.04275
G1 X115 Y82.623 E.03009
G1 X135 Y82.623 E.62709
G1 X136.307 Y83.015 E.04278
G1 X137.183 Y84.06 E.04275
G1 X137.377 Y85 E.03009
G1 X137.377 Y125 E1.25417
G1 X136.985 Y126.307 E.04278
G1 X135.94 Y127.183 E.04275
G1 X135 Y127.377 E.03009
G1 X115 Y127.377 E.62709
G1 X113.693 Y126.985 E.04278
G1 X112.817 Y125.94 E.04275
G1 X112.623 Y125 E.03009
G1 X112.623 Y85 E1.25417
G1 X112.997 Y83.75 E.04091
M204 S1000
; printing object Body2 id:0 copy 0
;WIPE_START
G1 F8640
G1 X114.06 Y82.817 E-.32658
G1 X115 Y82.623 E-.22162
G1 X116.091 Y82.623 E-.2518
;WIPE_END
G1 Z.6 F720
G1 X134.213 Y124.213 F10800
G1 Z.2 F720
M73 Q1 S24
G1 E.8 F2100
M204 S800
;TYPE:Perimeter
;WIDTH:0.419999
G1 F1200
G1 X115.787 Y124.213 E.57773
G1 X115.787 Y85.787 E1.20482
M73 P1 R24
G1 X134.213 Y85.787 E.57773
G1 X134.213 Y124.153 E1.20294
M204 S1000
G1 X134.59 Y124.59 F10800
M204 S800
;TYPE:External perimeter
G1 F1200
G1 X115.41 Y124.59 E.60137
G1 X115.41 Y85.41 E1.22846
G1 X134.59 Y85.41 E.60137
G1 X134.59 Y124.53 E1.22658
M204 S1000
G1 X134.217 Y124.445 F10800
;WIPE_START
G1 F8640
G1 X131.125 Y124.541 E-.8
;WIPE_END
G1 Z.6 F720
G1 X133.277 Y85.957 F10800
G1 Z.2 F720
G1 E.8 F2100
M204 S800
;TYPE:Solid infill
;WIDTH:0.421716
G1 F1200
G1 X133.874 Y86.553 E.02657
G1 X133.874 Y87.089 E.01688
G1 X132.911 Y86.126 E.0429
G1 X132.376 Y86.126 E.01685
G1 X133.874 Y87.624 E.06673
G1 X133.874 Y88.16 E.01688
G1 X131.84 Y86.126 E.0906
G1 X131.304 Y86.126 E.01688
G1 X133.874 Y88.696 E.11448
G1 X133.874 Y89.231 E.01685
G1 X130.769 Y86.126 E.13831
G1 X130.233 Y86.126 E.01688
G1 X133.874 Y89.767 E.16218
G1 X133.874 Y90.303 E.01688
G1 X129.697 Y86.126 E.18606
G1 X129.161 Y86.126 E.01688
G1 X133.874 Y90.839 E.20993
G1 X133.874 Y91.374 E.01685
G1 X128.626 Y86.126 E.23376
G1 X128.09 Y86.126 E.01688
M73 Q2 S24
G1 X133.874 Y91.91 E.25764
G1 X133.874 Y92.446 E.01688
M73 P2 R24
G1 X127.554 Y86.126 E.28151
G1 X127.019 Y86.126 E.01685
G1 X133.874 Y92.981 E.30535
G1 X133.874 Y93.517 E.01688
G1 X126.483 Y86.126 E.32922
G1 X125.947 Y86.126 E.01688
G1 X133.874 Y94.053 E.3531
G1 X133.874 Y94.588 E.01685
G1 X125.412 Y86.126 E.37693
G1 X124.876 Y86.126 E.01688
G1 X133.874 Y95.124 E.4008
G1 X133.874 Y95.66 E.01688
G1 X124.34 Y86.126 E.42468
G1 X123.804 Y86.126 E.01688
G1 X133.874 Y96.196 E.44855
G1 X133.874 Y96.731 E.01685
G1 X123.269 Y86.126 E.47238
G1 X122.733 Y86.126 E.01688
G1 X133.874 Y97.267 E.49626
G1 X133.874 Y97.803 E.01688
G1 X122.197 Y86.126 E.52013
G1 X121.662 Y86.126 E.01685
G1 X133.874 Y98.338 E.54397
G1 X133.874 Y98.874 E.01688
G1 X121.126 Y86.126 E.56784
G1 X120.59 Y86.126 E.01688
G1 X133.874 Y99.41 E.59172
G1 X133.874 Y99.945 E.01685
M73 P2 R23
G1 X120.055 Y86.126 E.61555
G1 X119.519 Y86.126 E.01688
G1 X133.874 Y100.481 E.63942
G1 X133.874 Y101.017 E.01688
G1 X118.983 Y86.126 E.6633
G1 X118.447 Y86.126 E.01688
G1 X133.874 Y101.553 E.68717
G1 X133.874 Y102.088 E.01685
M73 Q3 S23
G1 X117.912 Y86.126 E.711
G1 X117.376 Y86.126 E.01688
M73 P3 R23
G1 X133.874 Y102.624 E.73488
G1 X133.874 Y103.16 E.01688
G1 X116.84 Y86.126 E.75875
G1 X116.305 Y86.126 E.01685
G1 X133.874 Y103.695 E.78258
G1 X133.874 Y104.231 E.01688
G1 X116.126 Y86.484 E.79054
G1 X116.126 Y87.02 E.01688
G1 X133.874 Y104.767 E.79054
G1 X133.874 Y105.302 E.01685
G1 X116.126 Y87.555 E.79054
G1 X116.126 Y88.091 E.01688
G1 X133.874 Y105.838 E.79054
G1 X133.874 Y106.374 E.01688
G1 X116.126 Y88.627 E.79054
G1 X116.126 Y89.162 E.01685
G1 X133.874 Y106.91 E.79056
G1 X133.874 Y107.445 E.01685
G1 X116.126 Y89.698 E.79054
G1 X116.126 Y90.234 E.01688
G1 X133.874 Y107.981 E.79054
G1 X133.874 Y108.517 E.01688
M73 P4 R23
M73 Q4 S23
G1 X116.126 Y90.77 E.79054
G1 X116.126 Y91.305 E.01685
G1 X133.874 Y109.052 E.79054
G1 X133.874 Y109.588 E.01688
G1 X116.126 Y91.841 E.79054
G1 X116.126 Y92.377 E.01688
G1 X133.874 Y110.124 E.79054
G1 X133.874 Y110.659 E.01685
G1 X116.126 Y92.912 E.79054
G1 X116.126 Y93.448 E.01688
G1 X133.874 Y111.195 E.79054
G1 X133.874 Y111.731 E.01688
G1 X116.126 Y93.984 E.79054
G1 X116.126 Y94.519 E.01685
G1 X133.874 Y112.267 E.79056
G1 X133.874 Y112.802 E.01685
G1 X116.126 Y95.055 E.79054
G1 X116.126 Y95.591 E.01688
G1 X133.874 Y113.338 E.79054
G1 X133.874 Y113.874 E.01688
G1 X116.126 Y96.127 E.79054
G1 X116.126 Y96.662 E.01685
M73 Q5 S23
G1 X133.874 Y114.409 E.79054
G1 X133.874 Y114.945 E.01688
M73 P5 R23
G1 X116.126 Y97.198 E.79054
G1 X116.126 Y97.734 E.01688
G1 X133.874 Y115.481 E.79054
G1 X133.874 Y116.016 E.01685
G1 X116.126 Y98.269 E.79054
G1 X116.126 Y98.805 E.01688
G1 X133.874 Y116.552 E.79054
G1 X133.874 Y117.088 E.01688
G1 X116.126 Y99.341 E.79054
G1 X116.126 Y99.876 E.01685
G1 X133.874 Y117.623 E.79054
G1 X133.874 Y118.159 E.01688
G1 X116.126 Y100.412 E.79054
G1 X116.126 Y100.948 E.01688
G1 X133.874 Y118.695 E.79054
G1 X133.874 Y119.231 E.01688
G1 X116.126 Y101.483 E.79056
G1 X116.126 Y102.019 E.01688
G1 X133.874 Y119.766 E.79054
G1 X133.874 Y120.302 E.01688
G1 X116.126 Y102.555 E.79054
G1 X116.126 Y103.091 E.01688
M73 P6 R23
M73 Q6 S23
G1 X133.874 Y120.838 E.79054
G1 X133.874 Y121.373 E.01685
G1 X116.126 Y103.626 E.79054
G1 X116.126 Y104.162 E.01688
G1 X133.874 Y121.909 E.79054
G1 X133.874 Y122.445 E.01688
G1 X116.126 Y104.698 E.79054
G1 X116.126 Y105.233 E.01685
G1 X133.874 Y122.98 E.79054
G1 X133.874 Y123.516 E.01688
G1 X116.126 Y105.769 E.79054
G1 X116.126 Y106.305 E.01688
G1 X133.695 Y123.874 E.78258
G1 X133.16 Y123.874 E.01685
G1 X116.126 Y106.84 E.75875
G1 X116.126 Y107.376 E.01688
G1 X132.624 Y123.874 E.73488
G1 X132.088 Y123.874 E.01688
M73 P6 R22
G1 X116.126 Y107.912 E.711
G1 X116.126 Y108.448 E.01688
G1 X131.552 Y123.874 E.68713
G1 X131.017 Y123.874 E.01685
G1 X116.126 Y108.983 E.6633
G1 X116.126 Y109.519 E.01688
M73 P7 R22
M73 Q7 S22
G1 X130.481 Y123.874 E.63942
G1 X129.945 Y123.874 E.01688
G1 X116.126 Y110.055 E.61555
G1 X116.126 Y110.59 E.01685
G1 X129.41 Y123.874 E.59172
G1 X128.874 Y123.874 E.01688
G1 X116.126 Y111.126 E.56784
G1 X116.126 Y111.662 E.01688
G1 X128.338 Y123.874 E.54397
G1 X127.803 Y123.874 E.01685
G1 X116.126 Y112.197 E.52013
G1 X116.126 Y112.733 E.01688
G1 X127.267 Y123.874 E.49626
G1 X126.731 Y123.874 E.01688
G1 X116.126 Y113.269 E.47238
G1 X116.126 Y113.805 E.01688
G1 X126.195 Y123.874 E.44851
G1 X125.66 Y123.874 E.01685
G1 X116.126 Y114.34 E.42468
G1 X116.126 Y114.876 E.01688
G1 X125.124 Y123.874 E.4008
G1 X124.588 Y123.874 E.01688
G1 X116.126 Y115.412 E.37693
G1 X116.126 Y115.947 E.01685
G1 X124.053 Y123.874 E.3531
G1 X123.517 Y123.874 E.01688
G1 X116.126 Y116.483 E.32922
G1 X116.126 Y117.019 E.01688
G1 X122.981 Y123.874 E.30535
G1 X122.446 Y123.874 E.01685
G1 X116.126 Y117.554 E.28151
G1 X116.126 Y118.09 E.01688
G1 X121.91 Y123.874 E.25764
G1 X121.374 Y123.874 E.01688
G1 X116.126 Y118.626 E.23376
G1 X116.126 Y119.162 E.01688
G1 X120.838 Y123.874 E.20989
G1 X120.303 Y123.874 E.01685
G1 X116.126 Y119.697 E.18606
G1 X116.126 Y120.233 E.01688
G1 X119.767 Y123.874 E.16218
G1 X119.231 Y123.874 E.01688
M73 P8 R22
M73 Q8 S22
G1 X116.126 Y120.769 E.13831
G1 X116.126 Y121.304 E.01685
G1 X118.696 Y123.874 E.11448
G1 X118.16 Y123.874 E.01688
G1 X116.126 Y121.84 E.0906
G1 X116.126 Y122.376 E.01688
G1 X117.624 Y123.874 E.06673
G1 X117.089 Y123.874 E.01685
G1 X116.126 Y122.911 E.0429
G1 X116.126 Y123.447 E.01688
G1 X116.723 Y124.043 E.02657
M204 S1000
; stop printing object Body2 id:0 copy 0
M106 S84.15
;LAYER_CHANGE
;Z:0.5
;HEIGHT:0.3
;BEFORE_LAYER_CHANGE
G92 E0.0
;0.5


;WIPE_START
G1 F8640
G1 X116.126 Y123.447 E-.19478
G1 X116.126 Y122.911 E-.12376
G1 X117.089 Y123.874 E-.31446
G1 X117.624 Y123.874 E-.12353
G1 X117.491 Y123.741 E-.04347
;WIPE_END
G1 Z.6 F720
;AFTER_LAYER_CHANGE
;0.5
G1 X117.491 Y127.377 F10800
G1 Z.5 F720
G1 E.8 F2100
;TYPE:Skirt/Brim
;WIDTH:0.42
G1 F2700
G1 X115 Y127.377 E.11049
G1 X113.693 Y126.985 E.06052
G1 X112.817 Y125.94 E.06048
G1 X112.623 Y125 E.04257
G1 X112.623 Y85 E1.77419
G1 X113.015 Y83.693 E.06052
G1 X114.06 Y82.817 E.06048
G1 X115 Y82.623 E.04257
G1 X135 Y82.623 E.8871
G1 X136.307 Y83.015 E.06052
G1 X137.183 Y84.06 E.06048
G1 X137.377 Y85 E.04257
G1 X137.377 Y125 E1.77419
G1 X136.985 Y126.307 E.06052
G1 X135.94 Y127.183 E.06048
G1 X135 Y127.377 E.04257
G1 X117.551 Y127.377 E.77395
; printing object Body2 id:0 copy 0
;WIPE_START
G1 F8640
G1 X115 Y127.377 E-.58903
G1 X114.125 Y127.115 E-.21097
;WIPE_END
G1 Z.9 F720
G1 X134.214 Y124.214 F10800
G1 Z.5 F720
G1 E.8 F2100
M204 S800
;TYPE:Perimeter
;WIDTH:0.5
G1 F3000
G1 X115.786 Y124.214 E1.00124
G1 X115.786 Y85.786 E2.0879
G1 X134.214 Y85.786 E1.00124
G1 X134.214 Y124.154 E2.08464
M204 S1000
G1 X134.7 Y124.7 F10800
M204 S800
;TYPE:External perimeter
;WIDTH:0.6
G1 F2099.993

G1 X134.1 Y124.7 E.04008
G1 X115.9 Y124.7 E1.21586
G1 X115.3 Y124.7 E.04008
G1 X115.3 Y124.1 E.04008
G1 X115.3 Y85.9 E2.55196
G1 X115.3 Y85.3 E.04008
G1 X115.9 Y85.3 E.04008
G1 X134.1 Y85.3 E1.21586
G1 X134.7 Y85.3 E.04008
G1 X134.7 Y85.9 E.04008
G1 X134.7 Y124.04 E2.54796
G1 X134.7 Y124.64 E.04008

M204 S1000
G1 X134.327 Y124.555 F10800
;WIPE_START
G1 F8640
G1 X131.235 Y124.651 E-.8
;WIPE_END
G1 Z.9 F720
G1 X116.296 Y86.213 F10800
G1 Z.5 F720
G1 E.8 F2100
;TYPE:Solid infill
;WIDTH:0.605691
G1 F4800
G1 X116.248 Y86.165 E.00458
G1 X116.183 Y86.183 E.00455
G1 X116.165 Y86.248 E.00455
G1 X116.213 Y86.296 E.00458
G1 X116.278 Y86.278 E.00455
;WIDTH:0.5
G1 X116.974 Y86.178 E.0382
G1 X116.105 Y87.052 E.06696
;WIDTH:0.45219
G1 X116.033 Y87.13 E.00513
;WIDTH:0.404381
G1 X115.962 Y87.111 E.00312
G1 X115.981 Y87.182 E.00312
G1 X116.022 Y87.171 E.0018
;WIDTH:0.5
G1 X116.178 Y87.59 E.02429
G1 X117.59 Y86.178 E.1085
G1 X118.206 Y86.178 E.03347
G1 X116.178 Y88.206 E.15583
G1 X116.178 Y88.822 E.03347
G1 X118.822 Y86.178 E.20316
G1 X119.438 Y86.178 E.03347
G1 X116.178 Y89.438 E.25049
G1 X116.178 Y90.054 E.03347
G1 X120.054 Y86.178 E.29782
G1 X120.671 Y86.178 E.03352
G1 X116.178 Y90.671 E.34523
G1 X116.178 Y91.287 E.03347
G1 X121.287 Y86.178 E.39257
G1 X121.903 Y86.178 E.03347
G1 X116.178 Y91.903 E.4399
G1 X116.178 Y92.519 E.03347
G1 X122.519 Y86.178 E.48723
G1 X123.135 Y86.178 E.03347
G1 X116.178 Y93.135 E.53456
G1 X116.178 Y93.751 E.03347
G1 X123.751 Y86.178 E.5819
G1 X124.367 Y86.178 E.03347
G1 X116.178 Y94.367 E.62923
G1 X116.178 Y94.983 E.03347
G1 X124.983 Y86.178 E.67656
G1 X125.599 Y86.178 E.03347
G1 X116.178 Y95.599 E.72389
G1 X116.178 Y96.215 E.03347
M73 Q9 S22
G1 X126.215 Y86.178 E.77122
G1 X126.831 Y86.178 E.03347
M73 P9 R22
G1 X116.178 Y96.831 E.81856
G1 X116.178 Y97.447 E.03347
G1 X127.447 Y86.178 E.86589
G1 X128.063 Y86.178 E.03347
G1 X116.178 Y98.063 E.91322
G1 X116.178 Y98.679 E.03347
G1 X128.679 Y86.178 E.96055
G1 X129.295 Y86.178 E.03347
G1 X116.178 Y99.295 E1.00789
G1 X116.178 Y99.911 E.03347
G1 X129.911 Y86.178 E1.05522
G1 X130.527 Y86.178 E.03347
G1 X116.178 Y100.527 E1.10255
G1 X116.178 Y101.144 E.03352
G1 X131.144 Y86.178 E1.14996
G1 X131.76 Y86.178 E.03347
G1 X116.178 Y101.76 E1.19729
G1 X116.178 Y102.376 E.03347
G1 X132.376 Y86.178 E1.24462
G1 X132.992 Y86.178 E.03347
G1 X116.178 Y102.992 E1.29196
G1 X116.178 Y103.608 E.03347
G1 X133.608 Y86.178 E1.33929
G1 X133.822 Y86.579 E.0247
G1 X116.178 Y104.224 E1.35577
G1 X116.178 Y104.84 E.03347
G1 X133.822 Y87.195 E1.35577
G1 X133.822 Y87.811 E.03347
G1 X116.178 Y105.456 E1.35577
G1 X116.178 Y106.072 E.03347
G1 X133.822 Y88.427 E1.35577
G1 X133.822 Y89.043 E.03347
G1 X116.178 Y106.688 E1.35577
G1 X116.178 Y107.304 E.03347
G1 X133.822 Y89.659 E1.35577
G1 X133.822 Y90.276 E.03352
G1 X116.178 Y107.92 E1.35573
G1 X116.178 Y108.536 E.03347
G1 X133.822 Y90.892 E1.35573
G1 X133.822 Y91.508 E.03347
G1 X116.178 Y109.152 E1.35573
G1 X116.178 Y109.768 E.03347
G1 X133.822 Y92.124 E1.35573
G1 X133.822 Y92.74 E.03347
G1 X116.178 Y110.384 E1.35573
G1 X116.178 Y111 E.03347
G1 X133.822 Y93.356 E1.35573
G1 X133.822 Y93.972 E.03347
G1 X116.178 Y111.617 E1.35577
G1 X116.178 Y112.233 E.03347
G1 X133.822 Y94.588 E1.35577
G1 X133.822 Y95.204 E.03347
G1 X116.178 Y112.849 E1.35577
G1 X116.178 Y113.465 E.03347
G1 X133.822 Y95.82 E1.35577
G1 X133.822 Y96.436 E.03347
G1 X116.178 Y114.081 E1.35577
G1 X116.178 Y114.697 E.03347
G1 X133.822 Y97.052 E1.35577
G1 X133.822 Y97.668 E.03347
G1 X116.178 Y115.313 E1.35577
G1 X116.178 Y115.929 E.03347
G1 X133.822 Y98.284 E1.35577
G1 X133.822 Y98.9 E.03347
G1 X116.178 Y116.545 E1.35577
G1 X116.178 Y117.161 E.03347
G1 X133.822 Y99.516 E1.35577
G1 X133.822 Y100.132 E.03347
G1 X116.178 Y117.777 E1.35577
G1 X116.178 Y118.393 E.03347
G1 X133.822 Y100.748 E1.35577
G1 X133.822 Y101.365 E.03352
G1 X116.178 Y119.009 E1.35573
G1 X116.178 Y119.625 E.03347
G1 X133.822 Y101.981 E1.35573
G1 X133.822 Y102.597 E.03347
M73 P10 R22
M73 Q10 S22
G1 X116.178 Y120.241 E1.35573
G1 X116.178 Y120.857 E.03347
G1 X133.822 Y103.213 E1.35573
G1 X133.822 Y103.829 E.03347
G1 X116.178 Y121.473 E1.35573
G1 X116.178 Y122.089 E.03347
G1 X133.822 Y104.445 E1.35573
G1 X133.822 Y105.061 E.03347
G1 X116.178 Y122.706 E1.35577
G1 X116.178 Y123.322 E.03347
G1 X133.822 Y105.677 E1.35577
G1 X133.822 Y106.293 E.03347
G1 X116.293 Y123.822 E1.3469
G1 X116.19 Y123.883 E.0065
;WIDTH:0.45219
G1 X116.087 Y123.943 E.00577
;WIDTH:0.404381
G1 X116.016 Y123.924 E.00312
G1 X116.035 Y123.995 E.00312
G1 X116.076 Y123.984 E.0018
;WIDTH:0.5
G1 X116.909 Y123.822 E.04611
G1 X133.822 Y106.909 E1.29956
G1 X133.822 Y107.525 E.03347
G1 X117.525 Y123.822 E1.25223
G1 X118.141 Y123.822 E.03347
G1 X133.822 Y108.141 E1.2049
G1 X133.822 Y108.757 E.03347
G1 X118.757 Y123.822 E1.15757
G1 X119.373 Y123.822 E.03347
G1 X133.822 Y109.373 E1.11023
G1 X133.822 Y109.989 E.03347
G1 X119.989 Y123.822 E1.0629
G1 X120.605 Y123.822 E.03347
G1 X133.822 Y110.605 E1.01557
G1 X133.822 Y111.221 E.03347
G1 X121.221 Y123.822 E.96824
G1 X121.838 Y123.822 E.03352
G1 X133.822 Y111.838 E.92083
G1 X133.822 Y112.454 E.03347
G1 X122.454 Y123.822 E.8735
G1 X123.07 Y123.822 E.03347
G1 X133.822 Y113.07 E.82616
G1 X133.822 Y113.686 E.03347
G1 X123.686 Y123.822 E.77883
G1 X124.302 Y123.822 E.03347
G1 X133.822 Y114.302 E.7315
G1 X133.822 Y114.918 E.03347
G1 X124.918 Y123.822 E.68417
G1 X125.534 Y123.822 E.03347
G1 X133.822 Y115.534 E.63683
G1 X133.822 Y116.15 E.03347
G1 X126.15 Y123.822 E.5895
G1 X126.766 Y123.822 E.03347
G1 X133.822 Y116.766 E.54217
G1 X133.822 Y117.382 E.03347
G1 X127.382 Y123.822 E.49484
G1 X127.998 Y123.822 E.03347
G1 X133.822 Y117.998 E.44751
G1 X133.822 Y118.614 E.03347
G1 X128.614 Y123.822 E.40017
G1 X129.23 Y123.822 E.03347
